img/svg/online-school/wallet.svg

<svg width="24" height="24" viewBox="0 0 24 24" fill="none" xmlns="http://www.w3.org/2000/svg">
<g clip-path="url(#clip0_8580_34658)">
<path d="M18.3252 0.97421L18.3253 0.974183C18.5832 0.90967 18.8524 0.904764 19.1125 0.959837C19.3726 1.01491 19.6167 1.12851 19.8263 1.29202C20.036 1.45554 20.2056 1.66466 20.3223 1.90351L20.7715 1.68397L20.3223 1.90351C20.439 2.14236 20.4998 2.40467 20.5 2.67052V4.50013V5.00013H21H21.75C22.2141 5.00013 22.6592 5.1845 22.9874 5.51269C23.3156 5.84088 23.5 6.286 23.5 6.75013V20.2501C23.5 20.7143 23.3156 21.1594 22.9874 21.4876C22.6592 21.8158 22.2141 22.0001 21.75 22.0001H2.25C1.78587 22.0001 1.34075 21.8158 1.01256 21.4876C0.684375 21.1594 0.5 20.7143 0.5 20.2501L0.5 6.75013L0.5 6.74995C0.499837 6.29944 0.673416 5.86623 0.984607 5.54048C1.2958 5.21473 1.72063 5.02154 2.17067 5.00111L2.22067 4.99885L2.26923 4.98671L18.3252 0.97421ZM8.22175 4.01505L8.343 5.00013H19.5H20V4.50013L20 2.67013L20 2.66899C19.9996 2.47933 19.956 2.29226 19.8725 2.12193C19.7891 1.95161 19.668 1.80251 19.5184 1.68592L19.2156 2.07449L19.5184 1.68591C19.3688 1.56932 19.1947 1.4883 19.0091 1.44899C18.8236 1.40967 18.6315 1.41309 18.4475 1.45899L18.4473 1.45905L8.22175 4.01505ZM2.25 5.50013C1.91848 5.50013 1.60054 5.63182 1.36612 5.86624C1.1317 6.10066 1 6.41861 1 6.75013V20.2501C1 20.5816 1.1317 20.8996 1.36611 21.134C1.60054 21.3684 1.91848 21.5001 2.25 21.5001H21.75C22.0815 21.5001 22.3995 21.3684 22.6339 21.134C22.8683 20.8996 23 20.5816 23 20.2501V6.75013C23 6.41861 22.8683 6.10067 22.6339 5.86625C22.3995 5.63182 22.0815 5.50013 21.75 5.50013H2.25Z" fill="#FBFBFB" stroke="#FBFBFB"/>
</g>
<defs>
<clipPath id="clip0_8580_34658">
<rect width="24" height="24" fill="white"/>
</clipPath>
</defs>
</svg>

<svg width="24" height="24" fill="none" xmlns="http://www.w3.org/2000/svg"><g clip-path="url(#clip0_8580_34658)"><path d="M18.325.974h0a1.75 1.75 0 011.997.93l.45-.22-.45.22c.117.238.178.5.178.767V5h1.25a1.75 1.75 0 011.75 1.75v13.5A1.75 1.75 0 0121.75 22H2.25A1.75 1.75 0 01.5 20.25V6.75A1.75 1.75 0 012.17 5h.05l.05-.012L18.324.974zM8.222 4.015L8.343 5H20V2.67a1.249 1.249 0 00-.482-.983l-.302.388.302-.388a1.25 1.25 0 00-1.07-.227h0L8.221 4.015zM2.25 5.5A1.25 1.25 0 001 6.75v13.5a1.25 1.25 0 001.25 1.25h19.5A1.25 1.25 0 0023 20.25V6.75a1.25 1.25 0 00-1.25-1.25H2.25z" fill="#FBFBFB" stroke="#FBFBFB"/></g><defs><clipPath id="clip0_8580_34658"><path fill="#fff" d="M0 0h24v24H0z"/></clipPath></defs></svg>
